GWA/img/main-logo.svg

<svg width="185" height="61" viewBox="0 0 185 61" fill="none" xmlns="http://www.w3.org/2000/svg">
<path d="M80.7902 30.7968H83.7735V37.7754C82.0012 39.2483 79.5298 40 77.1372 40C71.8794 40 68 36.2212 68 31C68 25.7788 71.8794 22 77.1865 22C80.0221 22 82.3951 22.9752 84 24.8544L82.0111 26.8555C80.6818 25.4842 79.1557 24.8544 77.3341 24.8544C73.7206 24.8544 71.1803 27.3837 71.1803 31C71.1803 34.5451 73.7206 37.1558 77.3145 37.1558C78.5255 37.1558 79.7169 36.9018 80.8098 36.2517V30.7968H80.7902Z" fill="#D3B880"/>
<path d="M89 31C89 25.8194 93.0334 22 98.5 22C103.967 22 108 25.7991 108 31C108 36.2009 103.967 40 98.5 40C93.0334 40 89 36.1704 89 31ZM104.704 31C104.704 27.4244 102.052 24.8442 98.5 24.8442C94.9477 24.8442 92.3066 27.4244 92.3066 31C92.3066 34.5756 94.9477 37.1558 98.5 37.1558C102.052 37.1456 104.704 34.5756 104.704 31Z" fill="#D3B880"/>
<path d="M113 22H116.145V36.3262H125V39H113V22Z" fill="#D3B880"/>
<path d="M129 22H136.561C142.174 22 146 25.4039 146 30.4951C146 35.5961 142.164 39 136.561 39H129V22ZM136.411 36.3262C140.266 36.3262 142.767 34.0174 142.767 30.4951C142.767 26.9727 140.266 24.664 136.411 24.664H132.203V36.3163H136.411V36.3262Z" fill="#D3B880"/>
<path d="M164 36.3558V39H151V22H163.648V24.6442H154.217V29.0644H162.582V31.6692H154.217V36.3558H164Z" fill="#D3B880"/>
<path d="M184 22V39H181.423L172.116 27.4858V39H169V22H171.577L180.894 33.5142V22H184Z" fill="#D3B880"/>
<path d="M82 46L78.9172 55H77.5334L75.0102 47.808L72.4971 55H71.0828L68 46H69.3634L71.8459 53.3212L74.4506 46H75.6613L78.2049 53.3609L80.7485 46H82Z" fill="#D3B880"/>
<path d="M99 53.8874V55H92V46H98.8085V47.1126H93.383V49.8841H98.2128V50.9768H93.383V53.8874H99Z" fill="#D3B880"/>
<path d="M118 52.5689C118 54.1069 116.79 55 114.441 55H110V46H114.174C116.318 46 117.508 46.8732 117.508 48.3319C117.508 49.3043 116.985 49.989 116.256 50.3363C117.313 50.6141 118 51.3682 118 52.5689ZM111.333 47.0419V49.9195H114.062C115.415 49.9195 116.185 49.4333 116.185 48.4807C116.185 47.5281 115.415 47.0419 114.062 47.0419H111.333ZM116.656 52.4598C116.656 51.4179 115.856 50.9515 114.379 50.9515H111.323V53.9482H114.379C115.867 53.9482 116.656 53.5017 116.656 52.4598Z" fill="#D3B880"/>
<path d="M126 49.9944C126 49.4068 126.46 49 127.011 49C127.552 49 128 49.4068 128 49.9944C128 50.5819 127.552 51 127.011 51C126.46 51 126 50.5706 126 49.9944Z" fill="#D3B880"/>
<path d="M142.767 52.7475H138.205L137.259 55H136L139.89 46H141.101L145 55H143.713L142.767 52.7475ZM142.331 51.7155L140.476 47.3098L138.621 51.7155H142.331Z" fill="#D3B880"/>
<path d="M163.734 50.4515H164.923V53.8847C164.05 54.6218 162.851 55 161.633 55C158.957 55 157 53.0991 157 50.5C157 47.9009 158.966 46 161.662 46C163.043 46 164.213 46.4655 165 47.3578L164.233 48.1336C163.513 47.4256 162.688 47.1153 161.71 47.1153C159.695 47.1153 158.247 48.5312 158.247 50.5C158.247 52.4397 159.695 53.875 161.7 53.875C162.429 53.875 163.12 53.7101 163.734 53.3125V50.4515Z" fill="#D3B880"/>
<path d="M185 53.8874V55H178V46H184.809V47.1126H179.383V49.8841H184.223V50.9768H179.383V53.8874H185Z" fill="#D3B880"/>
<path d="M2 59V14.539C2 7.61581 7.61679 2 14.5412 2H59V49.2838C59 54.652 54.6512 59 49.2821 59H2Z" fill="#D3B880"/>
<path opacity="0.33" d="M59.7235 41.8269L60.99 40.709L55.5523 34.7238L61 28.6991L59.7336 27.5911L54.4165 33.4773L47.6622 26.0577L60.015 16.066L58.9395 14.77L46.5264 24.8112L35.7517 12.9695L48.6673 1.22671L47.5115 0L34.6159 11.723L24.002 0.0494641L22.7355 1.16735L33.3696 12.8607L20.3233 24.7123L16.0717 21.141L10.8451 0.405606L9.19674 0.811212L13.8504 19.2712L1.13577 8.57708L0.582963 9.94229L14.564 22.061L16.1822 28.4815L0 43.1822L1.15587 44.4089L16.6446 30.3314L20.5545 45.8137L5.5482 57.9522L6.62366 59.2481L21.0068 47.6142L24.0422 59.6537L25.6906 59.2481L22.4642 46.4369L33.2188 37.7411L43.0789 46.0313L31.4599 58.892L32.7263 60L44.3655 47.1096L54.497 55.6175L55.6026 54.3413L45.5012 45.8533L54.4165 35.9802L59.7235 41.8269ZM34.5054 14.0973L45.2098 25.8697L33.2389 35.5548L21.6299 25.8005L34.5054 14.0973ZM16.7853 23.9307L19.077 25.85L17.6095 27.1855L16.7853 23.9307ZM22.0018 44.6364L18.0618 29.0354L20.3635 26.9481L31.8921 36.6331L22.0018 44.6364ZM44.2047 44.7749L34.5456 36.6628L46.3455 27.1162L53.2707 34.7337L44.2047 44.7749Z" fill="white"/>
<path d="M42.3631 22C46.4638 22 50.3759 23.6024 53.4638 26.2665C53.8312 26.637 53.8709 27.1879 53.5035 27.5484L50.6837 30.5329C50.3163 30.9035 49.9092 30.9035 49.5021 30.5329C47.5461 28.7903 45.1333 27.8689 42.6312 27.8689C36.9418 27.8689 32.434 32.7763 32.434 38.525C32.434 44.2137 36.9418 49.041 42.6709 49.041C45.2227 49.041 48.1518 48.2598 49.0653 47.8892V43.9833H44.4482C43.9518 43.9833 43.5844 43.6127 43.5844 43.1621V40.448C43.5844 39.9372 43.9518 39.5766 44.4482 39.5766H53.1858C53.6426 39.5766 54 39.9873 54 40.448V51.2844C54 51.6549 53.8213 51.8853 53.6326 52.0155C53.6326 52.0155 48.9461 55 42.3433 55C33.2879 55 26 47.749 26 38.5651C26 29.3812 33.3078 22 42.3631 22Z" fill="white"/>
<path d="M46.9528 61H0V14.0472C0 6.2994 6.2994 0 14.0472 0H61V46.9528C61 54.7006 54.6907 61 46.9528 61ZM3.9086 57.0815H46.9429C52.5281 57.0815 57.0815 52.538 57.0815 46.9429V3.9086H14.0472C8.46203 3.9086 3.9086 8.45211 3.9086 14.0472V57.0815Z" fill="#D3B880"/>
</svg>

<svg width="185" height="61" fill="none" xmlns="http://www.w3.org/2000/svg"><path d="M80.79 30.797h2.983v6.978C82.001 39.248 79.53 40 77.138 40 71.88 40 68 36.221 68 31s3.88-9 9.186-9c2.836 0 5.21.975 6.814 2.854l-1.989 2.002c-1.33-1.372-2.855-2.002-4.677-2.002-3.613 0-6.154 2.53-6.154 6.146 0 3.545 2.54 6.156 6.134 6.156 1.212 0 2.403-.254 3.496-.904v-5.455h-.02zM89 31c0-5.18 4.033-9 9.5-9s9.5 3.8 9.5 9-4.033 9-9.5 9-9.5-3.83-9.5-9zm15.704 0c0-3.576-2.652-6.156-6.204-6.156-3.552 0-6.193 2.58-6.193 6.156 0 3.576 2.64 6.156 6.193 6.156 3.552-.01 6.204-2.58 6.204-6.156zM113 22h3.145v14.326H125V39h-12V22zm16 0h7.561c5.613 0 9.439 3.404 9.439 8.495 0 5.101-3.836 8.505-9.439 8.505H129V22zm7.411 14.326c3.855 0 6.356-2.309 6.356-5.83 0-3.523-2.501-5.832-6.356-5.832h-4.208v11.652h4.208v.01zm27.589.03V39h-13V22h12.648v2.644h-9.431v4.42h8.365v2.605h-8.365v4.687H164zM184 22v17h-2.577l-9.307-11.514V39H169V22h2.577l9.317 11.514V22H184zM82 46l-3.083 9h-1.384l-2.523-7.192L72.497 55h-1.414L68 46h1.363l2.483 7.321L74.45 46h1.21l2.544 7.36L80.749 46H82zm17 7.887V55h-7v-9h6.808v1.113h-5.425v2.771h4.83v1.093h-4.83v2.91H99zm19-1.318c0 1.538-1.21 2.431-3.559 2.431H110v-9h4.174c2.144 0 3.334.873 3.334 2.332 0 .972-.523 1.657-1.252 2.004 1.057.278 1.744 1.032 1.744 2.233zm-6.667-5.527v2.877h2.729c1.353 0 2.123-.486 2.123-1.438 0-.953-.77-1.44-2.123-1.44h-2.729zm5.323 5.418c0-1.042-.8-1.508-2.277-1.508h-3.056v2.996h3.056c1.488 0 2.277-.446 2.277-1.488zM126 49.994c0-.587.46-.994 1.011-.994.541 0 .989.407.989.994a.98.98 0 01-.989 1.006A1 1 0 01126 49.994zm16.767 2.754h-4.562L137.259 55H136l3.89-9h1.211L145 55h-1.287l-.946-2.252zm-.436-1.032l-1.855-4.406-1.855 4.405h3.71zm21.403-1.264h1.189v3.433c-.873.737-2.072 1.115-3.29 1.115-2.676 0-4.633-1.9-4.633-4.5s1.966-4.5 4.662-4.5c1.381 0 2.551.465 3.338 1.358l-.767.776c-.72-.708-1.545-1.019-2.523-1.019-2.015 0-3.463 1.416-3.463 3.385 0 1.94 1.448 3.375 3.453 3.375.729 0 1.42-.165 2.034-.563v-2.86zM185 53.887V55h-7v-9h6.809v1.113h-5.426v2.771h4.84v1.093h-4.84v2.91H185zM2 59V14.539C2 7.616 7.617 2 14.541 2H59v47.284A9.714 9.714 0 0149.282 59H2z" fill="#D3B880"/><path opacity=".33" d="M59.724 41.827l1.266-1.118-5.438-5.985L61 28.699l-1.266-1.108-5.318 5.886-6.754-7.42 12.353-9.991-1.075-1.296-12.414 10.041L35.752 12.97 48.667 1.226 47.511 0 34.617 11.723 24.002.049l-1.267 1.118L33.37 12.861 20.323 24.712l-4.251-3.571L10.845.406 9.197.81l4.653 18.46L1.136 8.577.583 9.942l13.981 12.119 1.618 6.42L0 43.183l1.156 1.227 15.489-14.08 3.91 15.483L5.548 57.952l1.076 1.296 14.383-11.634 3.035 12.04 1.649-.406-3.227-12.811L33.22 37.74l9.86 8.29-11.62 12.861L32.727 60l11.64-12.89 10.131 8.508 1.106-1.277L45.5 45.853l8.916-9.873 5.306 5.847zm-25.219-27.73L45.21 25.87l-11.971 9.685-11.61-9.755 12.876-11.703zm-17.72 9.834l2.292 1.919-1.468 1.335-.824-3.254zm5.217 20.705l-3.94-15.6 2.301-2.088 11.53 9.685-9.891 8.003zm22.203.139l-9.66-8.112 11.8-9.547 6.926 7.618-9.066 10.04z" fill="#fff"/><path d="M42.363 22c4.1 0 8.013 1.602 11.1 4.267.368.37.408.92.04 1.281l-2.82 2.985c-.367.37-.774.37-1.18 0-1.957-1.743-4.37-2.664-6.872-2.664-5.69 0-10.197 4.907-10.197 10.656 0 5.689 4.508 10.516 10.237 10.516 2.552 0 5.48-.781 6.394-1.152v-3.906h-4.617c-.496 0-.864-.37-.864-.82v-2.715c0-.51.368-.871.864-.871h8.738c.457 0 .814.41.814.871v10.836c0 .37-.179.601-.367.732 0 0-4.687 2.984-11.29 2.984C33.288 55 26 47.749 26 38.565 26 29.381 33.308 22 42.363 22z" fill="#fff"/><path d="M46.953 61H0V14.047C0 6.3 6.3 0 14.047 0H61v46.953C61 54.7 54.69 61 46.953 61zM3.909 57.081h43.034c5.585 0 10.139-4.543 10.139-10.138V3.909H14.047C8.462 3.909 3.91 8.452 3.91 14.047v43.035z" fill="#D3B880"/></svg>
